src/assets/icons/museum.svg

<svg xmlns="http://www.w3.org/2000/svg" viewBox="0 0 32 32"><path d="M16 1l15 7.5V14h-3v11h3v6H1v-6h3V14H1V8.5zm13 26H3v2h26zM8 14H6v11h2zm5 0h-3v11h3zm4 0h-2v11h2zm5 0h-3v11h3zm4 0h-2v11h2zM16 3.24L3 9.74V12h26V9.74zm-1.2 2.51L16 9.12l1.14-3.37H19V11h-1.24V7.29L16.4 11h-.89l-1.32-3.71V11H13V5.75z" fill-rule="evenodd"/></svg>

<svg xmlns="http://www.w3.org/2000/svg" width="32" height="32" viewBox="0 0 32 32"><defs><style>.cls-1{fill-rule:evenodd;}</style></defs><g id="museum"><path id="Combined-Shape" class="cls-1" d="M16,1,31,8.5V14H28V25h3v6H1V25H4V14H1V8.5ZM29,27H3v2H29ZM8,14H6V25H8Zm5,0H10V25h3Zm4,0H15V25h2Zm5,0H19V25h3Zm4,0H24V25h2ZM16,3.24,3,9.74V12H29V9.74ZM14.8,5.75,16,9.12h0l1.14-3.37H19V11H17.76l0-3.71h0L16.4,11h-.89L14.19,7.29h0l0,3.71H13V5.75Z"/></g></svg>
